X: 1
T: Old Man and the Old Woman, The
C: Trad
R: Reel
O: French-Canadian
M: 4/4
L: 1/8
K: G
Z: ABC transcription by Verge Roller
r: 32
|: Bc | "G" dedB GBdB | "Am" cdcB A2 g2 | "D" fgfe dfaf | "G" gage d2 Bc |
"G" dedB GBdB | "Am" cdcB A2 g2 | "D" fgfe dfaf | "G" gfga g2 :|
|: Bc | "G" d g2 g g2 Bc | "D" d f2 f f2 AB | "C" c e2 e e2 dB | "G" GABc d2 Bc |
"G" d g2 g g2 Bc | "D" d f2 f f2 AB | "C" c e2 e e2 dc | "G" BG "D" AF "G" G2 :|
